X:140
T:Twig the Mercer THO1.140
M:2/4
L:1/8
Z:vmp. Peter Dunk 2012.from a transcription by Fynn Titford-Mock 2006
B:Thompson's Compleat Collection of 200 Favourite Country Dances Vol.I,1758
Q:1/4=140
K:Emix
[e2B2E2] BG|ADFA|[e2B2E2] BG|Bcde|\
ecdB|ADFA|[e2B2E2] BG|ADFA:|
|:(e/g/f/e/) (af)|fBdf|(e/g/f/e/) (af)|geaf|\
(ge)(af)|fBdf|[e2B2E2] BG|ADFA:|

